X: 252
T: the Fairy Cobbler
B: O'Neill's 252
N: "With spirit"
N: "Collected by F.O'Neill"
Z: 1997 by John Chambers <jc@trillian.mit.edu>
M: 6/8
L: 1/8
K:Gm
(d/c/) \
| B2G A2F | G2F D2E  | F2E F2G | F3 d2c |
| BAG AG^F | G2=F DEC | D=E^F G2G | G3- G2 ||
|| D \
| G2G B2c | d2c f2d | c2A F2A | c3- c2A |
| G2G B2c | d2g g2g | {=e}f2d B2c | d3- d2c |
| B2G AG^F | G2=F DEC | D=E^F G2G | G3- G2 ||


